src/svg/uf1c8-file-movie-o,file-video-o.svg

<!-- Generated by IcoMoon.io -->
<svg version="1.1" xmlns="http://www.w3.org/2000/svg" width="27" height="32" viewBox="0 0 27 32">
<path d="M26.214 6.786c0.661 0.661 1.214 1.982 1.214 2.929v20.571c0 0.946-0.768 1.714-1.714 1.714h-24c-0.946 0-1.714-0.768-1.714-1.714v-28.571c0-0.946 0.768-1.714 1.714-1.714h16c0.946 0 2.268 0.554 2.929 1.214zM18.286 2.429v6.714h6.714c-0.107-0.304-0.268-0.607-0.393-0.732l-5.589-5.589c-0.125-0.125-0.429-0.286-0.732-0.393zM25.143 29.714v-18.286h-7.429c-0.946 0-1.714-0.768-1.714-1.714v-7.429h-13.714v27.429h22.857zM13.714 13.714c1.25 0 2.286 1.036 2.286 2.286v6.857c0 1.25-1.036 2.286-2.286 2.286h-6.857c-1.25 0-2.286-1.036-2.286-2.286v-6.857c0-1.25 1.036-2.286 2.286-2.286h6.857zM22.5 13.75c0.214 0.089 0.357 0.304 0.357 0.536v10.286c0 0.232-0.143 0.446-0.357 0.536-0.071 0.018-0.143 0.036-0.214 0.036-0.143 0-0.304-0.054-0.411-0.161l-4.732-4.75v-1.607l4.732-4.75c0.107-0.107 0.268-0.161 0.411-0.161 0.071 0 0.143 0.018 0.214 0.036z"></path>
</svg>

<svg xmlns="http://www.w3.org/2000/svg" width="27" height="32"><path d="M26.214 6.786c.661.661 1.214 1.982 1.214 2.929v20.571c0 .946-.768 1.714-1.714 1.714h-24A1.715 1.715 0 0 1 0 30.286V1.715C0 .769.768.001 1.714.001h16c.946 0 2.268.554 2.929 1.214zm-7.928-4.357v6.714H25c-.107-.304-.268-.607-.393-.732l-5.589-5.589c-.125-.125-.429-.286-.732-.393zm6.857 27.285V11.428h-7.429A1.715 1.715 0 0 1 16 9.714V2.285H2.286v27.429h22.857zm-11.429-16A2.302 2.302 0 0 1 16 16v6.857a2.302 2.302 0 0 1-2.286 2.286H6.857a2.302 2.302 0 0 1-2.286-2.286V16a2.302 2.302 0 0 1 2.286-2.286h6.857zm8.786.036a.585.585 0 0 1 .357.536v10.286a.586.586 0 0 1-.357.536.888.888 0 0 1-.214.036.597.597 0 0 1-.411-.161l-4.732-4.75v-1.607l4.732-4.75a.597.597 0 0 1 .411-.161c.071 0 .143.018.214.036z"/></svg>
